X:1
T:Soldaten og jenta
T:Soldaten og jenta
T:Ludvig M. Lindeman: Norske Fjeldmelodier, Nr. 604
T:Urskoug
C:Urskoug
L:1/8
Q:1/4=80
M:4/4
K:Bb
V:1 treble nm="Piano" snm="Pno."
V:1
"^Con moto"!mf! D2 | G3/2 G/ G3/2 B/ A2 A3/2 B/ | G4 ^F2!p! =F F |!<(! B B B B c c!<)! c c | %4
w: Sol-|da- ten gik til Jen- ta i|Ro- a, fa- la-|lu- a- li- a, lu- a- li- a-|
 d3 z!f! d3 c | Bc d3/2 e/ d2 c3/2 B/ | A4 d2!mf! G3/2 A/ | B2 c c A2 G3/2 A/ | %8
w: lei, gik og|tram- * pa i Mun- de- rings|Sko- a, fil- li-|la- pa- ri- spel fil- li-|
 .B2 .c2 .A2 G3/2 A/ | B B c c A3 z |!f! (!>!d6 c2) | B c d e d c B A |!>(! A4!>)! d2!p! G>A | %13
w: jap jap jap, fal- le-|lu- a- li- a- la.|"Trold, *|fe- ri dei, du kun- ne gaat paa|To- a," sa *|
 B2 B3/2 c/ A2 A3/2 B/ | G4 z2 |] %15
w: Jen- ta til Sol- da- ten|da.|

